Sources/FrostedUI/Resources/Icons.xcassets/command16.imageset/command-16.svg

<svg width="16" height="16" viewBox="0 0 16 16" fill="none" xmlns="http://www.w3.org/2000/svg" data-fui-icon="true">
  <path
    d="M12 1C13.6569 1 15 2.34315 15 4C15 5.65685 13.6569 7 12 7H10.5V9H12C13.6569 9 15 10.3431 15 12C15 13.6569 13.6569 15 12 15C10.3431 15 9 13.6569 9 12V10.5H7V12C7 13.6569 5.65685 15 4 15C2.34315 15 1 13.6569 1 12C1 10.3431 2.34315 9 4 9H5.5V7H4C2.34315 7 1 5.65685 1 4C1 2.34315 2.34315 1 4 1C5.65685 1 7 2.34315 7 4V5.5H9V4C9 2.34315 10.3431 1 12 1ZM4 10.5C3.17157 10.5 2.5 11.1716 2.5 12C2.5 12.8284 3.17157 13.5 4 13.5C4.82843 13.5 5.5 12.8284 5.5 12V10.5H4ZM10.5 12C10.5 12.8284 11.1716 13.5 12 13.5C12.8284 13.5 13.5 12.8284 13.5 12C13.5 11.1716 12.8284 10.5 12 10.5H10.5V12ZM7 9H9V7H7V9ZM4 2.5C3.17157 2.5 2.5 3.17157 2.5 4C2.5 4.82843 3.17157 5.5 4 5.5H5.5V4C5.5 3.17157 4.82843 2.5 4 2.5ZM12 2.5C11.1716 2.5 10.5 3.17157 10.5 4V5.5H12C12.8284 5.5 13.5 4.82843 13.5 4C13.5 3.17157 12.8284 2.5 12 2.5Z"
    fill="currentColor"
  />
</svg>

<svg xmlns="http://www.w3.org/2000/svg" width="16" height="16" fill="none" data-fui-icon="true" viewBox="0 0 16 16"><path fill="currentColor" d="M12 1a3 3 0 1 1 0 6h-1.5v2H12a3 3 0 1 1-3 3v-1.5H7V12a3 3 0 1 1-3-3h1.5V7H4a3 3 0 1 1 3-3v1.5h2V4a3 3 0 0 1 3-3m-8 9.5A1.5 1.5 0 1 0 5.5 12v-1.5zm6.5 1.5a1.5 1.5 0 1 0 1.5-1.5h-1.5zM7 9h2V7H7zM4 2.5a1.5 1.5 0 1 0 0 3h1.5V4A1.5 1.5 0 0 0 4 2.5m8 0A1.5 1.5 0 0 0 10.5 4v1.5H12a1.5 1.5 0 0 0 0-3"/></svg>
